X: 7645
T: Cold Frosty Morning
R: reel
M: 4/4
K: Adorian
|:E2|A2 cB A2 A2|ABcd e2 D2|G2 BA G2 G2|GABc d2 E2|
A2 cB A2 A2|AB cd e2 AB|cBAc BAGB|1 A4 A2:|2 A4 A2 z2||
|:e2 a2 a2 a2|abag e2 e2|e2 f2 g2 g2|edcd e4|
A2 A2 c2 c2|d2 d2 e2 AB|cBAc BA GB|1 A4 A2 z2:|2 A4 A2||

